X: 126006
M: 2/4
L: 1/16
K: G
(dc) |\
dfag fed^c | dfag fedc |\
efge fgaf | g2b2g2 :|
|: (ga) |\
b2bg a2af | (gf)ge d2dB |\
c2ec B2dB | AGAB A2(ga) |\
b2bg a2af | (gf)ge (.d2.d2) |\
efge fgaf | g2b2g2 :|


